!!!COM: Ockeghem, Johannes
!!!CDT: ~1425-1497/02/06
!!!OTL: Presque transi
!!!AGN: Song; Chanson
!!!SCT: Ock3016
!!!SCA: Ock3016
!!!voices: 3
**kern	**text	**kern	**text	**kern	**text
*thru	*thru	*thru	*thru	*thru	*thru
*staff3	*staff3	*staff2	*staff2	*staff1	*staff1
*Ivox	*	*Ivox	*	*Ivox	*
*I"Tenor	*	*I"Contra	*	*I"Discantus	*
*I'T	*	*I'C	*	*I'D	*
*clefF4	*	*clefGv2	*	*clefG2	*
*k[]	*	*k[]	*	*k[]	*
*M3/1	*	*M3/1	*	*M3/1	*
*met(O)	*	*met(O)	*	*met(O)	*
=1	=1	=1	=1	=1	=1
!!LO:TX:Z=12:t=Virelai
1.E	Pres-	1B	Pres-	1.e	-Pres-
.	.	2G/	.	.	.
2AA/	.	2F/	.	2c/	.
1AA	-que	1A	-que	1c	-que
=2	=2	=2	=2	=2	=2
1E	tran-	1G	tran-	1c	tran-
1.F	-si	1.A	-si	1.d	-si
4E\	.	2B\	.	4c/	.
4D\	.	.	.	4d/	.
=3	=3	=3	=3	=3	=3
0C	.	0c	.	1e	.
.	.	.	.	1r	.
1C	ung	1c	ung	1e	ung
=4	=4	=4	=4	=4	=4
1.G	peu	2B\	peu	1e	peu
.	.	1B	mains	.	.
.	.	.	.	1d	mains
2F\	.	2A/	.	.	.
2E\	.	2c\	.	2g/	qu'es-
2D\	.	2d\	.	2f/	.
=5	=5	=5	=5	=5	=5
1G	mains	2B\	.	1e	-tre
.	.	2G/	.	.	.
2F\	qu'es-	2A/	qu'es-	2d/	.
2G\	.	2G/	.	1e	mort,
1A	-tre	1c	-tre	.	.
.	.	.	.	2c/	.
=6	=6	=6	=6	=6	=6
0G	mort,	1d	mort,	1B	.
.	.	0G	.	1r	.
1B	Vi-	.	.	1d	Vi-
=7	=7	=7	=7	=7	=7
1c	-vant	1C	Vi-	1e	-vant
1.A	en	0D	-vant	1.f	en
2G\	.	.	.	2e/	.
=8	=8	=8	=8	=8	=8
1E	dueil	1C	en	1g	dueil
1r	.	1.c	dueil	0a	sans
1F	sans	.	.	.	.
.	.	2A/	.	.	.
=9	=9	=9	=9	=9	=9
1G	a-	1B	sans	1g	a-
0A	-voir	1A	.	2e/	.
.	.	.	.	2.f/	-voir
.	.	1c	a-	.	.
.	.	.	.	4e/	.
.	.	.	.	4d/	.
.	.	.	.	4c/	.
=10	=10	=10	=10	=10	=10
1G	.	2.d\	-voir	2.B/	.
.	.	4G/	.	4c/	.
2F\	.	2A/	.	2d/	.
2E\	.	2B\	.	2.e/	nul
2.C/	nul	2c\	nul	.	.
.	.	.	.	4f/	.
.	.	[2G/	.	2g/	.
4D\	.	.	.	.	.
=11	=11	=11	=11	=11	=11
2E\	.	2G/]	.	2e/	con-
2F\	.	2.A/	con-	2.d/	.
1C	.	.	.	.	.
.	.	4G/	.	4c/	.
.	.	1G	.	1c	.
1D	con-	.	.	.	.
.	.	2F/	.	2B/	.
=12	=12	=12	=12	=12	=12
2.C/	.	1G	-fort,	1c	-fort,
4D\	.	.	.	.	.
2E\	.	1r	.	1r	.
2.E\	.	.	.	.	.
.	.	1G	Veoir	1r	.
4D\	.	.	.	.	.
4C/	.	.	.	.	.
4BB/	.	.	.	.	.
=13	=13	=13	=13	=13	=13
1AA	-fort,	2.A/	l'en	1c	Veoir
.	.	8G/L	.	.	.
.	.	8F/J	.	.	.
1AA	Veoir	2E/	.	1c	l'en
.	.	2F/	.	.	.
1GG	l'en	1G	me	1B	.
=14	=14	=14	=14	=14	=14
1.C	me	1E	peut	1.A	me
.	.	1r	.	.	.
2D\	.	.	.	2G/	.
2E\	peut	1E	es	1G	peut
4D\	.	.	.	.	.
4E\	.	.	.	.	.
=15	=15	=15	=15	=15	=15
1F	es	1D	li-	1A	es
2D\	li-	1F	-enx	2B/	li-
1D	-enx	.	.	2A/	.
.	.	2r	.	1d	-enx
4C/	de	[2F/	de	.	.
4BB/	.	.	.	.	.
=16	=16	=16	=16	=16	=16
2AA/	For-	2F/]	.	2c/	de
2GG/	.	2G/	For-	2.B/	For-
2C/	.	2E/	-tu-	.	.
.	.	.	.	4A/	.
2D\	.	2F/	.	1A	-tu-
1BB	-tu-	1D	.	.	.
.	.	.	.	2G#i/	.
=17	=17	=17	=17	=17	=17
2AA/	.	0.E	-ne,	1.A	.
1C	.	.	.	.	.
2D\	.	.	.	2G/	.
2E\	.	.	.	2c/	.
2F\	.	.	.	2d/	.
=18	=18	=18	=18	=18	=18
1G	-ne,	0.r	.	1B	-ne,
1r	.	.	.	1r	.
1r	.	.	.	1r	.
=19	=19	=19	=19	=19	=19
1A	Qui	0F	Qui	1c	Qui
1A	sans	.	.	1.f	.
2A\	ces-	1D	.	.	.
2B\	.	.	.	2e/	.
=20	=20	=20	=20	=20	=20
0c	.	0C	sans	0e	sans
1c	-ser	1E	ces-	2g/	ces-
.	.	.	.	2a/	.
=21	=21	=21	=21	=21	=21
1G	.	1G	-ser	1b	-ser
0A	pis	1F	pis	1.cc	pis
.	.	2.c\	qu'au-	.	.
.	.	.	.	2b\	.
.	.	4d\	.	.	.
=22	=22	=22	=22	=22	=22
1c	qu'au-	1e	-tre	2.a/	qu'au-
.	.	.	.	4g/	.
1G	-tre	1d	.	1b	-tre
1A	me	2r	.	1cc	me
.	.	2c\	me	.	.
=23	=23	=23	=23	=23	=23
2G\	.	2d\	.	2b\	.
1c	for-	1e	for-	1a	for-
2G\	-tu-	1d	-tu-	1g	-tu-
1A	.	.	.	.	.
.	.	2c\	.	2f#i/	.
=24	=24	=24	=24	=24	=24
0G	-ne,	0.d	-ne,	1g	-ne,
.	.	.	.	1r	.
1r	.	.	.	1b	Et
=25	=25	=25	=25	=25	=25
1G	Et	1r	.	1b	me
1.A	me	1c	Et	1.cc	com-
.	.	[1F	me	.	.
2B\	.	.	.	2b\	.
=26	=26	=26	=26	=26	=26
0c	.	1F]	.	1a	.
.	.	2E/	com-	2g/	.
.	.	2F/	.	2.a/	.
1c	com-	2.C/	.	.	.
.	.	.	.	4g/	.
.	.	.	.	[2e/	.
.	.	4D/	.	.	.
=27	=27	=27	=27	=27	=27
2G\	.	2E/	.	2e/]	.
1c	.	2F/	.	2a/	.
.	.	2E/	.	2g/	.
2A\	.	2F/	.	4f/	.
.	.	.	.	4e/	.
1B	.	1G	.	1d	.
=28	=28	=28	=28	=28	=28
2c\	-bat	2.C/	-bat	1c	-bat
2A\	.	.	.	.	.
.	.	4D/	.	.	.
0G	.	1.E	.	2r	.
.	.	.	.	1B	de
.	.	2AA/	de	2A/	.
=29	=29	=29	=29	=29	=29
1A	de	2.AA/	plus	2c/	plus
.	.	.	.	2d/	.
.	.	4BB/	.	.	.
2G\	.	1C	.	1e	fort
1A	plus	.	.	.	.
.	.	2.c\	fort	1a	en
2F\	.	.	.	.	.
.	.	4A/	.	.	.
=30	=30	=30	=30	=30	=30
2E\	.	2c\	.	2g/	plus
2D\	.	2d\	.	2.f/	.
2G\	fort	2B\	.	.	.
.	.	.	.	4e/	.
2A\	en	2c\	en	1e	.
1F	plus	1A	plus	.	.
.	.	.	.	2d/	.
=31	=31	=31	=31	=31	=31
0.El	fort.	0.Bl	fort.	0.el	fort.
!!LO:LB:i:g=z
=32||	=32||	=32||	=32||	=32||	=32||
*clefF4	*	*clefGv2	*	*clefG2	*
!!section: Helas, je suis
!!!OMD: Helas, je suis
0A	He-	1.c	He-	0e	He-
.	.	.	.	.	.
.	.	2A/	.	.	.
1F	-las,	1c	-las,	1a	-las,
=33	=33	=33	=33	=33	=33
1F	je	1d	je	1a	je
0E	suis	[0e	suis	0g	suis
=34	=34	=34	=34	=34	=34
0E	con-	0e]	.	0g	con-
1D	-tre	1f	con-	1a	-tre
=35	=35	=35	=35	=35	=35
0G	mon	2d\	-tre	1.b	mon
.	.	1e	mon	.	.
.	.	2d\	.	4a/	.
.	.	.	.	4b\	.
1A	.	1f	.	1cc	.
=36	=36	=36	=36	=36	=36
2G\	vueil	2g\	vueil	2b\	vueil
2A\	.	2f\	.	1a	.
2B\	en	2d\	.	.	.
1c	vi-	2c\	en	2g/	en
.	.	1e	vi-	1a	vi-
2A\	.	.	.	.	.
=37	=37	=37	=37	=37	=37
1G	-e,	1.E	.	1b	-e,
0G	Et	.	.	1r	.
.	.	2C/	.	.	.
.	.	1C	-e,	1e	Et
=38	=38	=38	=38	=38	=38
1G	si	1C	si	1e	si
1.A	n'est	0F	n'est	1.f	n'est
2B\	.	.	.	2e/	.
=39	=39	=39	=39	=39	=39
1.c	riens	1C	riens	1e	riens
.	.	2E/	.	1r	.
2A\	.	2F/	.	.	.
1B	dont	1G	dont	1d	dont
=40	=40	=40	=40	=40	=40
1c	tant	1C	tant	1e	tant
0F	j'ay-	2D/	j'ay-	1.a	j'ay-
.	.	1F	.	.	.
.	.	2E/	.	2g/	.
=41	=41	=41	=41	=41	=41
1c	-e	1C	-e	1g	-e
1r	.	1D	d'en-	2f/	d'en-
.	.	.	.	2d/	.
1c	d'en-	1A	-vi-	1e	-vi-
=42	=42	=42	=42	=42	=42
2B\	-vi-	1.B	.	1d	.
1G	.	.	.	.	.
.	.	.	.	2e/	.
2B\	.	1d	.	1g	.
1A	.	.	.	.	.
.	.	2c\	.	2f#i/	.
=43	=43	=43	=43	=43	=43
1G	-e,	1d	.	1.g	.
1r	.	2G/	.	.	.
.	.	2A/	.	2e/	.
1G	Que	1B	-e,	1e	-e,
=44	=44	=44	=44	=44	=44
0A	de	1c	Que	1c	Que
.	.	0F	de	1.f	de
2A\	po-	.	.	.	.
2B\	.	.	.	2e/	.
=45	=45	=45	=45	=45	=45
1c	-voir	1C	.	1e	po-
2B\	.	1r	.	2d/	-voir
1A	.	.	.	2c/	.
.	.	1F	po-	1A	.
2F\	.	.	.	.	.
=46	=46	=46	=46	=46	=46
1E	veoir	1C	-voir	1G	veoir
1.F	ma	0c	veoir	2r	.
.	.	.	.	1A	ma
2E\	.	.	.	2G/	.
=47	=47	=47	=47	=47	=47
2F\	fin	2A/	ma	2c/	fin
4E\	.	2B\	.	2d/	.
4D\	.	.	.	.	.
1C	bien	1c	fin	1e	bien
[1D	pro-	2r	.	[1f	pro-
.	.	[2A/	bien	.	.
=48	=48	=48	=48	=48	=48
2D\]	.	4A/]	.	2f/]	.
.	.	4B\	.	.	.
2C/	.	2c\	pro-	2e/	.
2.G\	-chai-	2B\	-chai-	1e	-chai-
.	.	1G	.	.	.
4A\	.	.	.	.	.
2B\	.	.	.	2d/	.
[2c\	.	[2C/	.	[2e/	.
=49	=49	=49	=49	=49	=49
2c\]	.	4C/]	.	4e/]	.
.	.	4D/	.	4f/	.
2B\	.	1E	.	1g	.
2G\	.	.	.	.	.
1c	.	2C/	.	4f/	.
.	.	.	.	4e/	.
.	.	1G	.	1d	.
2B\	.	.	.	.	.
=50	=50	=50	=50	=50	=50
!LO:N:vis=2	!	!LO:N:vis=2	!	!LO:N:vis=1	!
0.c;	-ne.&	0.C;	-ne.&	0.c;	-ne.&
!!LO:LB:g=z
=51	=51	=51	=51	=51	=51
!!!RDF**kern: l=long note in original notation
!!!RDF**kern: i=editorial accidental
!!!ENC: Jesse Rodin (8/16/2012)
!!!END: 2015/11/05/
!!!EED: Jesse Rodin
!!!EEV: 2015/11/05/
!!!ONB: Translated from MusicXML and edited on 2015/11/05/ by Craig Sapp
!!muse2ps: C^@{COM}^i2I150v100,100,120Q16z18c72l2600
!!!COM: Ockeghem, Johannes
!!!CDT: ~1425-1497/02/06
!!!OTL: Presque transi
!!!AGN: Song; Chanson
!!!SCT: Ock3016
!!!SCA: Ock3016
!!!voices: 3
*thru	*thru	*thru	*thru	*thru	*thru
*staff3	*staff3	*staff2	*staff2	*staff1	*staff1
*Ivox	*	*Ivox	*	*Ivox	*
*I"Tenor	*	*I"Contra	*	*I"Discantus	*
*I'T	*	*I'C	*	*I'D	*
*clefF4	*	*clefGv2	*	*clefG2	*
!!section: Helas, je suis
!!!OMD: Helas, je suis
0A	Mo-	1.c	Mo-	0e	Mo-
.	.	.	.	.	.
.	.	2A/	.	.	.
1F	-rir	1c	-rir	1a	-rir
=52	=52	=52	=52	=52	=52
1F	ne	1d	ne	1a	ne
0E	puis	[0e	puis	0g	puis
=53	=53	=53	=53	=53	=53
0E	et	0e]	.	0g	et
1D	tous-	1f	et	1a	tous-
=54	=54	=54	=54	=54	=54
0G	-jours	2d\	tous-	1.b	-jours
.	.	1e	-jours	.	.
.	.	2d\	.	4a/	.
.	.	.	.	4b\	.
1A	.	1f	.	1cc	.
=55	=55	=55	=55	=55	=55
2G\	m'y	2g\	m'y	2b\	m'y
2A\	.	2f\	.	1a	.
2B\	con-	2d\	.	.	.
1c	-vi-	2c\	con-	2g/	con-
.	.	1e	-vi-	1a	-vi-
2A\	.	.	.	.	.
=56	=56	=56	=56	=56	=56
1G	-e,	1.E	.	1b	-e,
0G	Et	.	.	1r	.
.	.	2C/	.	.	.
.	.	1C	-e,	1e	Et
=57	=57	=57	=57	=57	=57
1G	m'est	1C	m'est	1e	m'est
1.A	bien	0F	bien	1.f	bien
2B\	.	.	.	2e/	.
=58	=58	=58	=58	=58	=58
1.c	tart	1C	tart	1e	tart
.	.	2E/	.	1r	.
2A\	.	2F/	.	.	.
1B	que	1G	que	1d	que
=59	=59	=59	=59	=59	=59
1c	du	1C	du	1e	du
0F	tout	2D/	tout	1.a	tout
.	.	1F	.	.	.
.	.	2E/	.	2g/	.
=60	=60	=60	=60	=60	=60
1c	je	1C	je	1g	je
1r	.	1D	des-	2f/	des-
.	.	.	.	2d/	.
1c	des-	1A	-vi-	1e	-vi-
=61	=61	=61	=61	=61	=61
2B\	-vi-	1.B	.	1d	.
1G	.	.	.	.	.
.	.	.	.	2e/	.
2B\	.	1d	.	1g	.
1A	.	.	.	.	.
.	.	2c\	.	2f#i/	.
=62	=62	=62	=62	=62	=62
1G	-e,	1d	.	1.g	.
1r	.	2G/	.	.	.
.	.	2A/	.	2e/	.
1G	A	1B	-e,	1e	-e,
=63	=63	=63	=63	=63	=63
0A	cel-	1c	A	1c	A
.	.	0F	cel-	1.f	cel-
2A\	-le	.	.	.	.
2B\	.	.	.	2e/	.
=64	=64	=64	=64	=64	=64
1c	fin	1C	-le	1e	-le
2B\	.	1r	.	2d/	.
1A	.	.	.	2c/	.
.	.	1F	fin	1A	.
2F\	.	.	.	.	.
=65	=65	=65	=65	=65	=65
1E	que	1C	que	1G	fin
1.F	so-	0c	so-	2r	.
.	.	.	.	1A	que
2E\	.	.	.	2G/	.
=66	=66	=66	=66	=66	=66
2F\	-ye	2A/	.	2c/	so-
4E\	.	2B\	.	2d/	.
4D\	.	.	.	.	.
1C	hors	1c	-ye	1e	-ye
[1D	de	2r	.	[1f	hors
.	.	[2A/	hors	.	.
=67	=67	=67	=67	=67	=67
2D\]	.	4A/]	.	2f/]	.
.	.	4B\	.	.	.
2C/	.	2c\	de	2e/	.
2.G\	pai-	2B\	pai-	1e	de
.	.	1G	.	.	.
4A\	.	.	.	.	.
2B\	.	.	.	2d/	.
[2c\	.	[2C/	.	[2e/	pai-
=68	=68	=68	=68	=68	=68
2c\]	.	4C/]	.	4e/]	.
.	.	4D/	.	4f/	.
2B\	.	1E	.	1g	.
2G\	.	.	.	.	.
1c	.	2C/	.	4f/	.
.	.	.	.	4e/	.
.	.	1G	.	1d	.
2B\	.	.	.	.	.
=69	=69	=69	=69	=69	=69
2c\	-ne,	2C/	ne,	1c	-ne,
2A\	.	2D/	.	.	.
1G	.	1E	.	2.B/	pai-
.	.	.	.	4A/	.
2A\	pai-	2r	.	2c/	.
4G\	.	2F/	pai-	2d/	.
4F\	.	.	.	.	.
=70	=70	=70	=70	=70	=70
2E\	.	2G/	.	2e/	.
2D\	.	2A/	.	1f	.
2G\	.	2B\	.	.	.
2A\	.	2c\	.	1e	.
1F	.	1A	.	.	.
.	.	.	.	2d/	.
=	=	=	=	=	=
0El	-ne.	0Bl	-ne.	0el	-ne.
!!LO:LB:g=z
=||	=||	=||	=||	=||	=||
!!!RDF**kern: l=long note in original notation
!!!RDF**kern: i=editorial accidental
!!!ENC: Jesse Rodin (8/16/2012)
!!!END: 2015/11/05/
!!!EED: Jesse Rodin
!!!EEV: 2015/11/05/
!!!ONB: Translated from MusicXML and edited on 2015/11/05/ by Craig Sapp
!!muse2ps: C^@{COM}^i2I150v100,100,120Q16z18c72l2600
!!!COM: Ockeghem, Johannes
!!!CDT: ~1425-1497/02/06
!!!OTL: Presque transi
!!!AGN: Song; Chanson
!!!SCT: Ock3016
!!!SCA: Ock3016
!!!voices: 3
*thru	*thru	*thru	*thru	*thru	*thru
*staff3	*staff3	*staff2	*staff2	*staff1	*staff1
*Ivox	*	*Ivox	*	*Ivox	*
*I"Tenor	*	*I"Contra	*	*I"Discantus	*
*I'T	*	*I'C	*	*I'D	*
*clefF4	*	*clefGv2	*	*clefG2	*
*k[]	*	*k[]	*	*k[]	*
*M3/1	*	*M3/1	*	*M3/1	*
*met(O)	*	*met(O)	*	*met(O)	*
1.E	Il	1B	Il	1.e	Il
.	.	2G/	.	.	.
2AA/	.	2F/	.	2c/	.
1AA	m'est	1A	m'est	1c	m'est
=71	=71	=71	=71	=71	=71
1E	ad-	1G	ad-	1c	ad-
1.F	-vis	1.A	-vis	1.d	-vis
4E\	.	2B\	.	4c/	.
4D\	.	.	.	4d/	.
=72	=72	=72	=72	=72	=72
0C	.	0c	.	1e	.
.	.	.	.	1r	.
1C	que	1c	que	1e	que
=73	=73	=73	=73	=73	=73
1.G	la	2B\	la	1e	la
.	.	1B	Mort	.	.
.	.	.	.	1d	Mort
2F\	.	2A/	.	.	.
2E\	.	2c\	.	2g/	me
2D\	.	2d\	.	2f/	.
=74	=74	=74	=74	=74	=74
1G	Mort	2B\	.	1e	tient
.	.	2G/	.	.	.
2F\	me	2A/	me	2d/	.
2G\	.	2G/	.	1e	tort,
1A	tient	1c	tient	.	.
.	.	.	.	2c/	.
=75	=75	=75	=75	=75	=75
0G	tort,	1d	tort,	1B	.
.	.	0G	.	1r	.
1B	Quant	.	.	1d	Quant
=76	=76	=76	=76	=76	=76
1c	au-	1C	Quant	1e	au-
1.A	-tre-	0D	au-	1.f	-tre-
2G\	.	.	.	2e/	.
=77	=77	=77	=77	=77	=77
1E	-ment	1C	-tre-	1g	-ment
1r	.	1.c	-ment	0a	el
1F	el	.	.	.	.
.	.	2A/	.	.	.
=78	=78	=78	=78	=78	=78
1G	ne	1B	el	1g	ne
0A	fait	1A	.	2e/	.
.	.	.	.	2.f/	fait
.	.	1c	ne	.	.
.	.	.	.	4e/	.
.	.	.	.	4d/	.
.	.	.	.	4c/	.
=79	=79	=79	=79	=79	=79
1G	.	2.d\	fait	2.B/	.
.	.	4G/	.	4c/	.
2F\	.	2A/	.	2d/	.
2E\	.	2B\	.	2.e/	son
2.C/	son	2c\	son	.	.
.	.	.	.	4f/	.
.	.	[2G/	.	2g/	.
4D\	.	.	.	.	.
=80	=80	=80	=80	=80	=80
2E\	.	2G/]	.	2e/	ef-
2F\	.	2.A/	ef-	2.d/	.
1C	.	.	.	.	.
.	.	4G/	.	4c/	.
.	.	1G	.	1c	.
1D	ef-	.	.	.	.
.	.	2F/	.	2B/	.
=81	=81	=81	=81	=81	=81
2.C/	.	1G	-fort,	1c	-fort,
4D\	.	.	.	.	.
2E\	.	1r	.	1r	.
2.E\	.	.	.	.	.
.	.	1G	De	1r	.
4D\	.	.	.	.	.
4C/	.	.	.	.	.
4BB/	.	.	.	.	.
=82	=82	=82	=82	=82	=82
1AA	-fort,	2.A/	moy	1c	De
.	.	8G/L	.	.	.
.	.	8F/J	.	.	.
1AA	De	2E/	.	1c	moy
.	.	2F/	.	.	.
1GG	moy	1G	.	1B	.
=83	=83	=83	=83	=83	=83
1.C	ven-	1E	.	1.A	ven-
.	.	1r	.	.	.
2D\	.	.	.	2G/	.
2E\	-gier	1E	ven-	1G	-gier
4D\	.	.	.	.	.
4E\	.	.	.	.	.
=84	=84	=84	=84	=84	=84
1F	de	1D	-gier	1A	de
2D\	ma	1F	de	2B/	ma
1D	vie	.	.	2A/	.
.	.	2r	.	1d	vie
4C/	im-	[2F/	ma	.	.
4BB/	.	.	.	.	.
=85	=85	=85	=85	=85	=85
2AA/	-por-	2F/]	.	2c/	im-
2GG/	.	2G/	vie	2.B/	-por-
2C/	.	2E/	im-	.	.
.	.	.	.	4A/	.
2D\	.	2F/	-por-	1A	-tu-
1BB	-tu-	1D	-tu-	.	.
.	.	.	.	2G#i/	.
=86	=86	=86	=86	=86	=86
2AA/	.	0.E	-ne;	1.A	.
1C	.	.	.	.	.
2D\	.	.	.	2G/	.
2E\	.	.	.	2c/	.
2F\	.	.	.	2d/	.
=87	=87	=87	=87	=87	=87
1G	-ne;	0.r	.	1B	-ne;
1r	.	.	.	1r	.
1r	.	.	.	1r	.
=88	=88	=88	=88	=88	=88
1A	Car	0F	Car	1c	Car
1A	je	.	.	1.f	.
2A\	lan-	1D	.	.	.
2B\	.	.	.	2e/	.
=89	=89	=89	=89	=89	=89
0c	-guis	0C	je	0e	je
1c	sans	1E	lan-	2g/	lan-
.	.	.	.	2a/	.
=90	=90	=90	=90	=90	=90
1G	.	1G	-guis	1b	-guis
0A	.	1F	sans	1.cc	sans
.	.	2.c\	a-	.	.
.	.	.	.	2b\	.
.	.	4d\	.	.	.
=91	=91	=91	=91	=91	=91
1c	a-	1e	-voir	2.a/	a-
.	.	.	.	4g/	.
1G	-voir	1d	.	1b	-voir
1A	jo-	2r	.	1cc	jo-
.	.	2c\	jo-	.	.
=92	=92	=92	=92	=92	=92
2G\	-ye au-	2d\	-ye au-	2b\	-ye au-
1c	.	1e	.	1a	.
2G\	-cu-	1d	-cu-	1g	-cu-
1A	.	.	.	.	.
.	.	2c\	.	2f#i/	.
=93	=93	=93	=93	=93	=93
0G	-ne,	0.d	-ne,	1g	-ne,
.	.	.	.	1r	.
1r	.	.	.	1b	Par
=94	=94	=94	=94	=94	=94
1G	Par	1r	.	1b	mon
1.A	mon	1c	Par	1.cc	mal-
.	.	[1F	mon	.	.
2B\	.	.	.	2b\	.
=95	=95	=95	=95	=95	=95
0c	.	1F]	.	1a	.
.	.	2E/	mal-	2g/	.
.	.	2F/	.	2.a/	.
1c	mal-	2.C/	.	.	.
.	.	.	.	4g/	.
.	.	.	.	[2e/	.
.	.	4D/	.	.	.
=96	=96	=96	=96	=96	=96
2G\	.	2E/	.	2e/]	.
1c	.	2F/	.	2a/	.
.	.	2E/	.	2g/	.
2A\	.	2F/	.	4f/	.
.	.	.	.	4e/	.
1B	.	1G	.	1d	.
=97	=97	=97	=97	=97	=97
2c\	-eur	2.C/	-eur	1c	-eur
2A\	.	.	.	.	.
.	.	4D/	.	.	.
0G	.	1.E	.	2r	.
.	.	.	.	1B	qui
.	.	2AA/	qui	2A/	.
=98	=98	=98	=98	=98	=98
1A	qui	2.AA/	me	2c/	me
.	.	.	.	2d/	.
.	.	4BB/	.	.	.
2G\	.	1C	de-	1e	de-
1A	me	.	.	.	.
.	.	2.c\	-vou-	1a	-vou-
2F\	de-	.	.	.	.
.	.	4A/	.	.	.
=99	=99	=99	=99	=99	=99
2E\	-vou-	2c\	.	2g/	-re et
2D\	.	2d\	.	2.f/	.
2G\	.	2B\	.	.	.
.	.	.	.	4e/	.
2A\	-re et	2c\	-re et	1e	.
1F	.	1A	.	.	.
.	.	.	.	2d/	.
=100	=100	=100	=100	=100	=100
0.El	mort.	0.Bl	mort.	0.el	mort.
!!LO:LB:i:g=z
=	=	=	=	=	=
!!!RDF**kern: l=long note in original notation
!!!RDF**kern: i=editorial accidental
!!!ENC: Jesse Rodin (8/16/2012)
!!!END: 2015/11/05/
!!!EED: Jesse Rodin
!!!EEV: 2015/11/05/
!!!ONB: Translated from MusicXML and edited on 2015/11/05/ by Craig Sapp
!!muse2ps: C^@{COM}^i2I150v100,100,120Q16z18c72l2600
!!!COM: Ockeghem, Johannes
!!!CDT: ~1425-1497/02/06
!!!OTL: Presque transi
!!!AGN: Song; Chanson
!!!SCT: Ock3016
!!!SCA: Ock3016
!!!voices: 3
*thru	*thru	*thru	*thru	*thru	*thru
*staff3	*staff3	*staff2	*staff2	*staff1	*staff1
*Ivox	*	*Ivox	*	*Ivox	*
*I"Tenor	*	*I"Contra	*	*I"Discantus	*
*I'T	*	*I'C	*	*I'D	*
*clefF4	*	*clefGv2	*	*clefG2	*
*k[]	*	*k[]	*	*k[]	*
*M3/1	*	*M3/1	*	*M3/1	*
*met(O)	*	*met(O)	*	*met(O)	*
1.E	Pres-	1B	Pres-	1.e	-Pres-
.	.	2G/	.	.	.
2AA/	.	2F/	.	2c/	.
1AA	-que	1A	-que	1c	-que
=101	=101	=101	=101	=101	=101
1E	tran-	1G	tran-	1c	tran-
1.F	-si	1.A	-si	1.d	-si
4E\	.	2B\	.	4c/	.
4D\	.	.	.	4d/	.
=102	=102	=102	=102	=102	=102
0C	.	0c	.	1e	.
.	.	.	.	1r	.
1C	ung	1c	ung	1e	ung
=103	=103	=103	=103	=103	=103
1.G	peu	2B\	peu	1e	peu
.	.	1B	mains	.	.
.	.	.	.	1d	mains
2F\	.	2A/	.	.	.
2E\	.	2c\	.	2g/	qu'es-
2D\	.	2d\	.	2f/	.
=104	=104	=104	=104	=104	=104
1G	mains	2B\	.	1e	-tre
.	.	2G/	.	.	.
2F\	qu'es-	2A/	qu'es-	2d/	.
2G\	.	2G/	.	1e	mort,
1A	-tre	1c	-tre	.	.
.	.	.	.	2c/	.
=105	=105	=105	=105	=105	=105
0G	mort,	1d	mort,	1B	.
.	.	0G	.	1r	.
1B	Vi-	.	.	1d	Vi-
=106	=106	=106	=106	=106	=106
1c	-vant	1C	Vi-	1e	-vant
1.A	en	0D	-vant	1.f	en
2G\	.	.	.	2e/	.
=107	=107	=107	=107	=107	=107
1E	dueil	1C	en	1g	dueil
1r	.	1.c	dueil	0a	sans
1F	sans	.	.	.	.
.	.	2A/	.	.	.
=108	=108	=108	=108	=108	=108
1G	a-	1B	sans	1g	a-
0A	-voir	1A	.	2e/	.
.	.	.	.	2.f/	-voir
.	.	1c	a-	.	.
.	.	.	.	4e/	.
.	.	.	.	4d/	.
.	.	.	.	4c/	.
=109	=109	=109	=109	=109	=109
1G	.	2.d\	-voir	2.B/	.
.	.	4G/	.	4c/	.
2F\	.	2A/	.	2d/	.
2E\	.	2B\	.	2.e/	nul
2.C/	nul	2c\	nul	.	.
.	.	.	.	4f/	.
.	.	[2G/	.	2g/	.
4D\	.	.	.	.	.
=110	=110	=110	=110	=110	=110
2E\	.	2G/]	.	2e/	con-
2F\	.	2.A/	con-	2.d/	.
1C	.	.	.	.	.
.	.	4G/	.	4c/	.
.	.	1G	.	1c	.
1D	con-	.	.	.	.
.	.	2F/	.	2B/	.
=111	=111	=111	=111	=111	=111
2.C/	.	1G	-fort,	1c	-fort,
4D\	.	.	.	.	.
2E\	.	1r	.	1r	.
2.E\	.	.	.	.	.
.	.	1G	Veoir	1r	.
4D\	.	.	.	.	.
4C/	.	.	.	.	.
4BB/	.	.	.	.	.
=112	=112	=112	=112	=112	=112
1AA	-fort,	2.A/	l'en	1c	Veoir
.	.	8G/L	.	.	.
.	.	8F/J	.	.	.
1AA	Veoir	2E/	.	1c	l'en
.	.	2F/	.	.	.
1GG	l'en	1G	me	1B	.
=113	=113	=113	=113	=113	=113
1.C	me	1E	peut	1.A	me
.	.	1r	.	.	.
2D\	.	.	.	2G/	.
2E\	peut	1E	es	1G	peut
4D\	.	.	.	.	.
4E\	.	.	.	.	.
=114	=114	=114	=114	=114	=114
1F	es	1D	li-	1A	es
2D\	li-	1F	-enx	2B/	li-
1D	-enx	.	.	2A/	.
.	.	2r	.	1d	-enx
4C/	de	[2F/	de	.	.
4BB/	.	.	.	.	.
=115	=115	=115	=115	=115	=115
2AA/	For-	2F/]	.	2c/	de
2GG/	.	2G/	For-	2.B/	For-
2C/	.	2E/	-tu-	.	.
.	.	.	.	4A/	.
2D\	.	2F/	.	1A	-tu-
1BB	-tu-	1D	.	.	.
.	.	.	.	2G#i/	.
=116	=116	=116	=116	=116	=116
2AA/	.	0.E	-ne,	1.A	.
1C	.	.	.	.	.
2D\	.	.	.	2G/	.
2E\	.	.	.	2c/	.
2F\	.	.	.	2d/	.
=117	=117	=117	=117	=117	=117
1G	-ne,	0.r	.	1B	-ne,
1r	.	.	.	1r	.
1r	.	.	.	1r	.
=118	=118	=118	=118	=118	=118
1A	Qui	0F	Qui	1c	Qui
1A	sans	.	.	1.f	.
2A\	ces-	1D	.	.	.
2B\	.	.	.	2e/	.
=119	=119	=119	=119	=119	=119
0c	.	0C	sans	0e	sans
1c	-ser	1E	ces-	2g/	ces-
.	.	.	.	2a/	.
=120	=120	=120	=120	=120	=120
1G	.	1G	-ser	1b	-ser
0A	pis	1F	pis	1.cc	pis
.	.	2.c\	qu'au-	.	.
.	.	.	.	2b\	.
.	.	4d\	.	.	.
=121	=121	=121	=121	=121	=121
1c	qu'au-	1e	-tre	2.a/	qu'au-
.	.	.	.	4g/	.
1G	-tre	1d	.	1b	-tre
1A	me	2r	.	1cc	me
.	.	2c\	me	.	.
=122	=122	=122	=122	=122	=122
2G\	.	2d\	.	2b\	.
1c	for-	1e	for-	1a	for-
2G\	-tu-	1d	-tu-	1g	-tu-
1A	.	.	.	.	.
.	.	2c\	.	2f#i/	.
=123	=123	=123	=123	=123	=123
0G	-ne,	0.d	-ne,	1g	-ne,
.	.	.	.	1r	.
1r	.	.	.	1b	Et
=124	=124	=124	=124	=124	=124
1G	Et	1r	.	1b	me
1.A	me	1c	Et	1.cc	com-
.	.	[1F	me	.	.
2B\	.	.	.	2b\	.
=125	=125	=125	=125	=125	=125
0c	.	1F]	.	1a	.
.	.	2E/	com-	2g/	.
.	.	2F/	.	2.a/	.
1c	com-	2.C/	.	.	.
.	.	.	.	4g/	.
.	.	.	.	[2e/	.
.	.	4D/	.	.	.
=126	=126	=126	=126	=126	=126
2G\	.	2E/	.	2e/]	.
1c	.	2F/	.	2a/	.
.	.	2E/	.	2g/	.
2A\	.	2F/	.	4f/	.
.	.	.	.	4e/	.
1B	.	1G	.	1d	.
=127	=127	=127	=127	=127	=127
2c\	-bat	2.C/	-bat	1c	-bat
2A\	.	.	.	.	.
.	.	4D/	.	.	.
0G	.	1.E	.	2r	.
.	.	.	.	1B	de
.	.	2AA/	de	2A/	.
=128	=128	=128	=128	=128	=128
1A	de	2.AA/	plus	2c/	plus
.	.	.	.	2d/	.
.	.	4BB/	.	.	.
2G\	.	1C	.	1e	fort
1A	plus	.	.	.	.
.	.	2.c\	fort	1a	en
2F\	.	.	.	.	.
.	.	4A/	.	.	.
=129	=129	=129	=129	=129	=129
2E\	.	2c\	.	2g/	plus
2D\	.	2d\	.	2.f/	.
2G\	fort	2B\	.	.	.
.	.	.	.	4e/	.
2A\	en	2c\	en	1e	.
1F	plus	1A	plus	.	.
.	.	.	.	2d/	.
=130	=130	=130	=130	=130	=130
0.El	fort.	0.Bl	fort.	0.el	fort.
!!LO:LB:i:g=z
=||	=||	=||	=||	=||	=||
*-	*-	*-	*-	*-	*-
!!!RDF**kern: l=long note in original notation
!!!RDF**kern: i=editorial accidental
!!!ENC: Jesse Rodin (8/16/2012)
!!!END: 2015/11/05/
!!!EED: Jesse Rodin
!!!EEV: 2015/11/05/
!!!ONB: Translated from MusicXML and edited on 2015/11/05/ by Craig Sapp
!!muse2ps: C^@{COM}^i2I150v115,115,130Q16z18l2600c64
